src/categories-icons-sprite/categories/svg-cat-garden-pool.svg

<svg width="33" height="33" viewBox="0 0 33 33" fill="none" xmlns="http://www.w3.org/2000/svg">
<path class="p-E0F4FF" d="M33 7.73434V19.4648L30.0352 21.3984H2.90039L0 19.4648V7.73434H12.9229L13.3095 8.70114H19.6905L19.4004 7.73434L20.2512 6.80615L21.334 7.73434H27.1348L28.3917 6.61279L29.0684 7.73434H33Z" fill="#B9DFFC"/>
<path class="p-BBDCFF" d="M33 7.73434V19.4648L30.0352 21.3984H16.5V8.70114H19.6905L19.4004 7.73434L20.2512 6.80615L21.334 7.73434H27.1348L28.3917 6.61279L29.0684 7.73434H33Z" fill="#A1D1FD"/>
<path class="p-966641" d="M21.334 3.36445V7.73438H19.4004V3.36445C19.4004 2.57162 18.7622 1.93359 17.9695 1.93359C17.4281 1.93359 16.9447 2.2429 16.7126 2.7263L16.5 3.15176L14.199 7.73438L13.5996 8.9332V20.4316H11.666V8.46914L14.9725 1.85619C15.3205 1.17949 15.8425 0.657357 16.5 0.348047C16.9447 0.116016 17.4475 0 17.9695 0C19.8257 0 21.334 1.50814 21.334 3.36445Z" fill="#5FBEFF"/>
<path class="p-966641" d="M20.3672 11.6016H12.6328V13.5352H20.3672V11.6016Z" fill="#5FBEFF"/>
<path class="p-966641" d="M20.3672 7.73438H12.6328V9.66797H20.3672V7.73438Z" fill="#5FBEFF"/>
<path class="p-7E5436" d="M20.3672 7.73438H16.5V9.66797H20.3672V7.73438Z" fill="#4D98CB"/>
<path class="p-7E5436" d="M20.3672 11.6016H16.5V13.5352H20.3672V11.6016Z" fill="#4D98CB"/>
<path class="p-7E5436" d="M21.334 3.36445V7.73438H19.4004V3.36445C19.4004 2.57162 18.7622 1.93359 17.9695 1.93359C17.4281 1.93359 16.9447 2.2429 16.7126 2.7263L16.5 3.15176V0.348047C16.9447 0.116016 17.4475 0 17.9695 0C19.8257 0 21.334 1.50814 21.334 3.36445Z" fill="#4D98CB"/>
<path class="p-966641" d="M20.3672 15.5977H12.6328V17.5312H20.3672V15.5977Z" fill="#5FBEFF"/>
<path class="p-7E5436" d="M20.3672 15.5977H16.5V17.5312H20.3672V15.5977Z" fill="#4D98CB"/>
<path class="p-7E5436" d="M29.0684 3.36445V7.73438H27.1348V3.36445C27.1348 2.57162 26.4966 1.93359 25.7039 1.93359C25.1624 1.93359 24.679 2.2429 24.447 2.7263L21.9334 7.73438L21.334 8.9332V20.4316H19.4004V8.46914L22.7069 1.85619C23.2869 0.71543 24.4277 0 25.7039 0C27.5601 0 29.0684 1.50814 29.0684 3.36445Z" fill="#4D98CB"/>
<path class="p-9BFCFF" d="M33 27.1992L31.4917 28.398L33 29.1328V33H0V29.1328L1.08281 28.166L0 27.1992V19.4648H33V27.1992Z" fill="#AFD9F6"/>
<path class="p-76E2F8" d="M33 27.1992L31.4917 28.398L33 29.1328V33H16.5V19.4648H33V27.1992Z" fill="#76B7E2"/>
<path class="p-76E2F8" d="M13.5996 23.332H5.86523V24.3737H13.5996V23.332Z" fill="#58ADE5"/>
<path class="p-28CBF7" d="M27.1348 22.4402H19.4004V23.4819H27.1348V22.4402Z" fill="#4D98CB"/>
<path class="p-28CBF7" d="M33 27.1992H27.1348V29.1328H33V27.1992Z" fill="#4D98CB"/>
<path class="p-76E2F8" d="M5.86523 27.1992H0V29.1328H5.86523V27.1992Z" fill="#58ADE5"/>
<path class="p-76E2F8" d="M21.334 28.0911H11.666V29.1328H21.334V28.0911Z" fill="#58ADE5"/>
<path class="p-28CBF7" d="M21.334 28.0911H16.5V29.1328H21.334V28.0911Z" fill="#4D98CB"/>
</svg>

<svg width="33" height="33" fill="none" xmlns="http://www.w3.org/2000/svg"><path class="p-E0F4FF" d="M33 7.734v11.73l-2.965 1.934H2.9L0 19.465V7.735h12.923l.386.966h6.382l-.29-.967.85-.928 1.083.928h5.8l1.258-1.121.676 1.121H33z" fill="#B9DFFC"/><path class="p-BBDCFF" d="M33 7.734v11.73l-2.965 1.934H16.5V8.701h3.19l-.29-.967.851-.928 1.083.928h5.8l1.258-1.121.676 1.121H33z" fill="#A1D1FD"/><path class="p-966641" d="M21.334 3.364v4.37H19.4v-4.37c0-.792-.638-1.43-1.43-1.43a1.39 1.39 0 00-1.257.792l-.213.426-2.301 4.582-.6 1.2v11.498h-1.933V8.469l3.306-6.613c.348-.677.87-1.199 1.528-1.508A3.166 3.166 0 0117.97 0a3.367 3.367 0 013.364 3.364z" fill="#5FBEFF"/><path class="p-966641" d="M20.367 11.602h-7.734v1.933h7.734v-1.933zM20.367 7.734h-7.734v1.934h7.734V7.734z" fill="#5FBEFF"/><path class="p-7E5436" d="M20.367 7.734H16.5v1.934h3.867V7.734zM20.367 11.602H16.5v1.933h3.867v-1.933zM21.334 3.364v4.37H19.4v-4.37c0-.792-.638-1.43-1.43-1.43a1.39 1.39 0 00-1.257.792l-.213.426V.348A3.166 3.166 0 0117.97 0a3.367 3.367 0 013.364 3.364z" fill="#4D98CB"/><path class="p-966641" d="M20.367 15.598h-7.734v1.933h7.734v-1.933z" fill="#5FBEFF"/><path class="p-7E5436" d="M20.367 15.598H16.5v1.933h3.867v-1.933z" fill="#4D98CB"/><path class="p-7E5436" d="M29.068 3.364v4.37h-1.933v-4.37c0-.792-.638-1.43-1.431-1.43a1.39 1.39 0 00-1.257.792l-2.514 5.008-.599 1.2v11.498H19.4V8.469l3.307-6.613A3.35 3.35 0 0125.704 0a3.367 3.367 0 013.364 3.364z" fill="#4D98CB"/><path class="p-9BFCFF" d="M33 27.2l-1.508 1.198 1.508.735V33H0v-3.867l1.083-.967L0 27.199v-7.734h33v7.734z" fill="#AFD9F6"/><path class="p-76E2F8" d="M33 27.2l-1.508 1.198 1.508.735V33H16.5V19.465H33v7.734z" fill="#76B7E2"/><path class="p-76E2F8" d="M13.6 23.332H5.865v1.042H13.6v-1.042z" fill="#58ADE5"/><path class="p-28CBF7" d="M27.135 22.44H19.4v1.042h7.735V22.44zM33 27.2h-5.865v1.933H33v-1.934z" fill="#4D98CB"/><path class="p-76E2F8" d="M5.865 27.2H0v1.933h5.865v-1.934zM21.334 28.091h-9.668v1.042h9.668V28.09z" fill="#58ADE5"/><path class="p-28CBF7" d="M21.334 28.091H16.5v1.042h4.834V28.09z" fill="#4D98CB"/></svg>
